images/img-header.svg

<?xml version="1.0" encoding="UTF-8" standalone="no"?>
<svg width="660px" height="545px" viewBox="0 0 660 545" version="1.1" xmlns="http://www.w3.org/2000/svg" xmlns:xlink="http://www.w3.org/1999/xlink">
    <!-- Generator: Sketch 50.2 (55047) - http://www.bohemiancoding.com/sketch -->
    <title>Group 14</title>
    <desc>Created with Sketch.</desc>
    <defs>
        <filter x="-24.8%" y="-20.8%" width="149.5%" height="161.1%" filterUnits="objectBoundingBox" id="filter-1">
            <feOffset dx="0" dy="40" in="SourceAlpha" result="shadowOffsetOuter1"></feOffset>
            <feGaussianBlur stdDeviation="35" in="shadowOffsetOuter1" result="shadowBlurOuter1"></feGaussianBlur>
            <feColorMatrix values="0 0 0 0 0.184313725   0 0 0 0 0.274509804   0 0 0 0 0.541176471  0 0 0 0.4 0" type="matrix" in="shadowBlurOuter1" result="shadowMatrixOuter1"></feColorMatrix>
            <feMerge>
                <feMergeNode in="shadowMatrixOuter1"></feMergeNode>
                <feMergeNode in="SourceGraphic"></feMergeNode>
            </feMerge>
        </filter>
        <filter x="-60.0%" y="-95.1%" width="220.0%" height="247.9%" filterUnits="objectBoundingBox" id="filter-2">
            <feOffset dx="0" dy="-30" in="SourceAlpha" result="shadowOffsetOuter1"></feOffset>
            <feGaussianBlur stdDeviation="30" in="shadowOffsetOuter1" result="shadowBlurOuter1"></feGaussianBlur>
            <feColorMatrix values="0 0 0 0 0.196078431   0 0 0 0 0.294117647   0 0 0 0 0.57254902  0 0 0 0.3 0" type="matrix" in="shadowBlurOuter1" result="shadowMatrixOuter1"></feColorMatrix>
            <feMerge>
                <feMergeNode in="shadowMatrixOuter1"></feMergeNode>
                <feMergeNode in="SourceGraphic"></feMergeNode>
            </feMerge>
        </filter>
    </defs>
    <g id="Page-1" stroke="none" stroke-width="1" fill="none" fill-rule="evenodd">
        <g id="Landing-Page-MC" transform="translate(-699.000000, -141.000000)" fill-rule="nonzero">
            <g id="Group-14" transform="translate(762.000000, 169.000000)">
                <g id="022-coaching" filter="url(#filter-1)">
                    <path d="M145.77,5.325 L145.77,27.958 L123.56,33.165 L100.55,27.958 L100.55,5.325 C100.55,2.588 102.769,0.368 105.507,0.368 L140.814,0.368 C143.551,0.368 145.77,2.587 145.77,5.325 Z" id="Shape" fill="#5A5A5A"></path>
                    <path d="M145.77,5.328 L145.77,27.958 L134.665,33.165 L128.52,27.958 L128.52,5.328 C128.52,2.588 126.3,0.368 123.56,0.368 L140.81,0.368 C143.55,0.368 145.77,2.588 145.77,5.328 Z" id="Shape" fill="#444444"></path>
                    <path d="M453.77,5.325 L453.77,27.958 L430.65,32.165 L408.55,27.958 L408.55,5.325 C408.55,2.588 410.769,0.368 413.507,0.368 L448.814,0.368 C451.551,0.368 453.77,2.587 453.77,5.325 Z" id="Shape" fill="#5A5A5A"></path>
                    <path d="M453.77,5.328 L453.77,27.958 L442.565,29.997 L436.32,27.958 L436.32,5.328 C436.32,2.588 434.1,0.368 431.36,0.368 L448.81,0.368 C451.55,0.368 453.77,2.588 453.77,5.328 Z" id="Shape" fill="#444444"></path>
                    <path d="M504.5,49.963 L504.5,298.003 C504.5,310.156 494.648,320.008 482.495,320.008 L459.01,320.008 L418.715,313.498 L378.42,320.008 L75.53,320.008 C61.33,320.008 49.82,308.488 49.82,294.298 L49.82,53.668 C49.82,39.478 61.33,27.958 75.53,27.958 L482.495,27.958 C494.648,27.958 504.5,37.81 504.5,49.963 Z" id="Shape" fill="#DDEAFB"></path>
                    <path d="M504.5,49.958 L504.5,298.008 C504.5,310.158 494.65,320.008 482.49,320.008 L461.21,320.008 C473.36,320.008 483.22,310.158 483.22,298.008 L483.22,49.958 C483.22,37.808 473.36,27.958 461.21,27.958 L482.49,27.958 C494.65,27.958 504.5,37.808 504.5,49.958 Z" id="Shape" fill="#CBE2FF"></path>
                    <path d="M459.01,292.146 L459.01,320.008 L378.42,320.008 L378.42,292.146 C378.42,287.712 382.014,284.118 386.448,284.118 L450.981,284.118 C455.416,284.118 459.01,287.712 459.01,292.146 Z" id="Shape" fill="#528FD8"></path>
                    <path d="M459.01,292.148 L459.01,320.008 L438.68,320.008 L438.68,292.148 C438.68,287.708 435.08,284.118 430.65,284.118 L450.98,284.118 C455.42,284.118 459.01,287.708 459.01,292.148 Z" id="Shape" fill="#0473CE"></path>
                    <path d="M358.76,217.138 L336.808,209.627 L325.89,184.268 L340.201,169.949 L352.701,161.03 C354.426,157.068 358.76,217.138 358.76,217.138 Z" id="Shape" fill="#FFCEBF"></path>
                    <path d="M363.01,161.148 L358.76,217.138 L345.024,212.438 L343.13,201.508 L345.273,173.253 C345.479,170.536 342.604,168.663 340.202,169.949 L353.411,156.738 C357.1,153.048 363.4,155.938 363.01,161.148 Z" id="Shape" fill="#FFB09E"></path>
                    <path d="M358.75,217.128 L310.55,275.848 C301.92,286.358 290.24,293.928 277.12,297.508 L199.998,318.598 C196.952,319.431 194.84,322.198 194.84,325.356 L194.84,400.629 L37.31,400.629 L37.31,353.309 C37.31,340.039 38.82,326.859 41.8,314.019 C44.77,301.179 49.2,288.669 55.04,276.749 C62.43,261.669 77.76,252.099 94.56,252.099 L220.94,252.099 C252.81,252.099 282.96,237.659 302.92,212.829 L325.89,184.269 L343.13,201.509 L358.75,217.128 Z" id="Shape" fill="#82AEE3"></path>
                    <path d="M358.75,217.128 L310.55,275.848 C301.92,286.358 290.24,293.928 277.12,297.508 L199.998,318.598 C196.952,319.431 194.84,322.198 194.84,325.356 L194.84,400.629 L169.54,400.629 L169.54,325.356 C169.54,322.199 171.652,319.431 174.698,318.598 L251.82,297.508 C264.94,293.928 276.62,286.358 285.25,275.848 L343.13,201.508 L358.75,217.128 Z" id="Shape" fill="#528FD8"></path>
                    <path d="M172.727,172.774 L172.727,210.893 C172.727,233.656 154.269,252.103 131.506,252.103 C130.645,252.103 129.784,252.081 128.934,252.015 C107.363,250.69 90.296,232.795 90.296,210.893 L90.296,172.774 L172.727,172.774 Z" id="Shape" fill="#FFCEBF"></path>
                    <path d="M292.949,99.914 L261.368,99.914 C258.81,99.914 256.736,97.84 256.736,95.282 L256.736,76.948 C256.736,74.39 258.81,72.316 261.368,72.316 L292.949,72.316 C295.507,72.316 297.581,74.39 297.581,76.948 L297.581,95.282 C297.582,97.84 295.508,99.914 292.949,99.914 Z" id="Shape" fill="#528FD8"></path>
                    <path d="M292.949,155.889 L261.368,155.889 C258.81,155.889 256.736,153.815 256.736,151.257 L256.736,132.923 C256.736,130.365 258.81,128.291 261.368,128.291 L292.949,128.291 C295.507,128.291 297.581,130.365 297.581,132.923 L297.581,151.257 C297.582,153.815 295.508,155.889 292.949,155.889 Z" id="Shape" fill="#528FD8"></path>
                    <path d="M172.73,172.778 L172.73,210.888 C172.73,233.658 154.27,252.098 131.51,252.098 C130.64,252.098 129.78,252.078 128.93,252.018 C126.03,251.838 123.21,251.368 120.51,250.608 C103.08,245.808 90.3,229.858 90.3,210.888 L90.3,172.778 L172.73,172.778 Z" id="Shape" fill="#FFCEBF"></path>
                    <path d="M172.73,172.778 L172.73,210.888 C172.73,233.658 154.27,252.098 131.51,252.098 C130.64,252.098 129.78,252.078 128.93,252.018 C126.03,251.838 123.21,251.368 120.51,250.608 C137.93,245.798 150.73,229.848 150.73,210.888 L150.73,172.778 L172.73,172.778 Z" id="Shape" fill="#FFB09E"></path>
                    <path d="M207.31,146.398 C207.31,162.718 194.09,175.938 177.77,175.938 L124.49,175.938 L124.49,216.818 C124.49,235.598 104.34,241.648 92.36,234.038 C87.53,230.968 84.03,225.688 83.71,218.138 C83.68,217.508 83.67,216.858 83.67,216.218 L83.67,160.008 C83.67,146.898 94.28,136.278 107.39,136.278 L128,136.278 C142.678,136.278 148.162,124.683 160.21,119.378 C165.677,116.998 171.864,116.577 177.77,116.848 C194.09,116.848 207.31,130.078 207.31,146.398 Z" id="Shape" fill="#5A5A5A"></path>
                    <g id="Group" transform="translate(88.000000, 116.000000)" fill="#444444">
                        <path d="M0.38,29.808 C0.83,29.198 1.31,28.608 1.83,28.048 C1.32,28.608 0.84,29.198 0.38,29.808 Z" id="Shape"></path>
                        <path d="M29.36,59.938 L36.49,59.938 L36.49,100.818 C36.49,119.598 16.34,125.648 4.36,118.038 C9.67,114.758 13.49,108.998 13.49,100.818 L13.49,75.808 C13.49,67.038 20.59,59.938 29.36,59.938 Z" id="Shape"></path>
                        <path d="M119.31,30.398 C119.31,46.718 106.09,59.938 89.77,59.938 L66.1,59.938 C82.34,59.938 96.3,46.658 96.31,30.418 C96.32,17.138 87.57,5.898 75.52,2.168 C79.706,0.877 85.2,0.653 89.77,0.848 C106.09,0.848 119.31,14.078 119.31,30.398 Z" id="Shape"></path>
                    </g>
                    <path d="M222.768,393.132 L7.5,393.132 C3.358,393.132 0,396.49 0,400.632 C0,404.774 3.358,408.132 7.5,408.132 L222.768,408.132 C226.91,408.132 230.268,404.774 230.268,400.632 C230.268,396.49 226.91,393.132 222.768,393.132 Z" id="Shape" fill="#0067C5"></path>
                    <path d="M459.011,93.614 L325.886,93.614 C321.744,93.614 318.386,90.256 318.386,86.114 C318.386,81.972 321.744,78.614 325.886,78.614 L459.011,78.614 C463.153,78.614 466.511,81.972 466.511,86.114 C466.511,90.256 463.153,93.614 459.011,93.614 Z" id="Shape" fill="#FFF9DF"></path>
                    <path d="M358.751,149.59 L325.886,149.59 C321.744,149.59 318.386,146.232 318.386,142.09 C318.386,137.948 321.744,134.59 325.886,134.59 L358.751,134.59 C362.893,134.59 366.251,137.948 366.251,142.09 C366.251,146.232 362.894,149.59 358.751,149.59 Z" id="Shape" fill="#FFF9DF"></path>
                </g>
                <g id="029-presentation" filter="url(#filter-2)" transform="translate(363.000000, 267.000000)">
                    <path d="M44,9.50301829 L34,11 L24,9.50301829 L24,2.45981535 C24,1.10117181 25.1636864,0 26.5986933,0 L41.4009629,0 C42.8363136,0 43.9996561,1.10149731 43.9996561,2.45981535 L43.9996561,9.50301829 L44,9.50301829 Z" id="Shape" fill="#5A5A5A"></path>
                    <path d="M44,2.45782776 L44,9.50251554 L41.3045249,11 L39.3945701,9.50251554 L39.3945701,2.45782776 C39.3945701,1.10032554 38.3239819,0 37,0 L41.6054299,0 C42.9294118,0 44,1.10032554 44,2.45782776 Z" id="Shape" fill="#444444"></path>
                    <path d="M149,9.50301829 L139.000172,11 L129,9.50301829 L129,2.45981535 C129,1.10117181 130.163706,0 131.598738,0 L146.401262,0 C147.836637,0 149,1.10149731 149,2.45981535 L149,9.50301829 Z" id="Shape" fill="#5A5A5A"></path>
                    <path d="M150,2.45782776 L150,9.50251554 L147.271967,11 L144.530544,9.50251554 L144.530544,2.45782776 C144.530544,1.10032554 143.399163,0 142,0 L147.469456,0 C148.865272,0 150,1.10032554 150,2.45782776 Z" id="Shape" fill="#444444"></path>
                    <path d="M175,18.2730304 L175,107.730493 C175,111.747027 171.922535,115 168.130282,115 L6.86971831,115 C3.07746479,115 0,111.747027 0,107.730493 L0,18.2730304 C0,14.2564966 3.07746479,11 6.86971831,11 L168.130282,11 C171.922535,10.9996476 175,14.2561443 175,18.2730304 Z" id="Shape" fill="#DDEAFB"></path>
                    <path d="M175,18.2730304 L175,107.730493 C175,111.747027 172.023865,115 168.360276,115 L159,115 C162.666993,115 165.639724,111.747027 165.639724,107.730493 L165.639724,18.2730304 C165.639724,14.2564966 162.667333,11 159,11 L168.360276,11 C172.023865,10.9996476 175,14.2561443 175,18.2730304 Z" id="Shape" fill="#CBE2FF"></path>
                    <path d="M54,47 C54,52.4674659 51.7629505,57.4175563 48.1406606,61 L34,47 L54,47 Z" id="Shape" fill="#528FD8"></path>
                    <path d="M54,47 L34,47 L34,27 C45.0444468,27 54,35.9555532 54,47 Z" id="Shape" fill="#82AEE3"></path>
                    <path d="M48,60.2871441 C44.3964709,63.8151203 39.4168966,66 33.9175994,66 C22.9148192,66 14,57.2683356 14,46.5 C14,35.7316644 22.9148192,27 33.9175994,27 L33.9175994,46.5 L48,60.2871441 Z" id="Shape" fill="#0473CE"></path>
                    <path d="M57,79.6366251 L57,96.3633749 C57,97.8223074 55.8038078,99 54.329928,99 L13.670072,99 C12.1961922,99 11,97.8223074 11,96.3633749 L11,79.6366251 C11,78.1812081 12.1961922,77 13.670072,77 L54.329928,77 C55.8038078,77 57,78.1812081 57,79.6366251 Z" id="Shape" fill="#FFF9DF"></path>
                    <path d="M57,79.6366251 L57,96.3633749 C57,97.8223074 55.7907869,99 54.3008637,99 L42,99 C43.4899232,99 44.6991363,97.8223074 44.6991363,96.3633749 L44.6991363,79.6366251 C44.6991363,78.1812081 43.4899232,77 42,77 L54.3008637,77 C55.7907869,77 57,78.1812081 57,79.6366251 Z" id="Shape" fill="#FFF0AD"></path>
                    <path d="M139,26.5337838 L139,35.4662162 C139,36.8648649 137.828559,38 136.377371,38 L68.6226289,38 C67.1749377,38 66,36.8648649 66,35.4662162 L66,26.5337838 C66,25.1351351 67.1749377,24 68.6226289,24 L136.377371,24 C137.828559,24 139,25.1351351 139,26.5337838 Z" id="Shape" fill="#528FD8"></path>
                    <path d="M139,26.5337838 L139,35.4662162 C139,36.8648649 137.841975,38 136.407407,38 L125,38 C126.434568,38 127.592593,36.8648649 127.592593,35.4662162 L127.592593,26.5337838 C127.592593,25.1351351 126.434568,24 125,24 L136.407407,24 C137.841975,24 139,25.1351351 139,26.5337838 Z" id="Shape" fill="#0473CE"></path>
                    <path d="M175,81.9485788 L175,129.051421 C175,136.201144 169.28093,142 162.228799,142 L115.771201,142 C108.71942,142 103,136.201144 103,129.051421 L103,81.9485788 C103,74.7988564 108.71907,69 115.771201,69 L162.228799,69 C169.28093,69 175,74.7988564 175,81.9485788 Z" id="Shape" fill="#528FD8"></path>
                    <path d="M175,81.9485788 L175,129.051421 C175,136.201144 169.13155,142 161.895219,142 L152,142 C159.235971,142 165.104781,136.201144 165.104781,129.051421 L165.104781,81.9485788 C165.104781,74.7988564 159.23633,69 152,69 L161.895219,69 C169.13155,69 175,74.7988564 175,81.9485788 Z" id="Shape" fill="#0473CE"></path>
                    <path d="M122.273945,127 L115.726055,127 C114.77281,127 114,126.257811 114,125.342335 L114,104.657665 C114,103.742189 114.77281,103 115.726055,103 L122.273945,103 C123.22719,103 124,103.742189 124,104.657665 L124,125.342335 C124,126.257811 123.22719,127 122.273945,127 Z" id="Shape" fill="#FFD15B"></path>
                    <path d="M142.273945,126 L135.726055,126 C134.77281,126 134,125.279306 134,124.390344 L134,97.6096563 C134,96.7206942 134.77281,96 135.726055,96 L142.273945,96 C143.22719,96 144,96.7206942 144,97.6096563 L144,124.390344 C144,125.279306 143.22719,126 142.273945,126 Z" id="Shape" fill="#FFF0AD"></path>
                    <path d="M162.273945,126 L155.726055,126 C154.77281,126 154,125.282674 154,124.397866 L154,88.6021337 C154,87.7173261 154.77281,87 155.726055,87 L162.273945,87 C163.22719,87 164,87.7173261 164,88.6021337 L164,124.397515 C164,125.282674 163.22719,126 162.273945,126 Z" id="Shape" fill="#FFF9DF"></path>
                    <path d="M94,79.6366251 L94,96.3633749 C94,97.8223074 92.8014311,99 91.3166369,99 L68.6833631,99 C67.2021467,99 66,97.8223074 66,96.3633749 L66,79.6366251 C66,78.1812081 67.2021467,77 68.6833631,77 L91.3166369,77 C92.8014311,77 94,78.1812081 94,79.6366251 Z" id="Shape" fill="#FFF0AD"></path>
                    <path d="M94,79.6366251 L94,96.3633749 C94,97.8223074 92.7602432,99 91.2244251,99 L80,99 C81.5358181,99 82.7755749,97.8223074 82.7755749,96.3633749 L82.7755749,79.6366251 C82.7755749,78.1812081 81.5358181,77 80,77 L91.2244251,77 C92.7602432,77 94,78.1812081 94,79.6366251 Z" id="Shape" fill="#FFD15B"></path>
                    <path d="M153.354404,52 L68.6452435,52 C67.184011,52 66,50.6572 66,49 C66,47.3428 67.184011,46 68.6452435,46 L153.354757,46 C154.815989,46 156,47.3428 156,49 C156,50.6572 154.815636,52 153.354404,52 Z" id="Shape" fill="#FFF9DF"></path>
                    <path d="M154.317255,62 L100.682745,62 C99.2007966,62 98,60.6572 98,59 C98,57.3428 99.2007966,56 100.682745,56 L154.317255,56 C155.799203,56 157,57.3428 157,59 C157,60.6572 155.799203,62 154.317255,62 Z" id="Shape" fill="#FFF9DF"></path>
                    <path d="M87.340897,62 L68.659103,62 C67.1902145,62 66,60.6572 66,59 C66,57.3428 67.1902145,56 68.659103,56 L87.340897,56 C88.8097855,56 90,57.3428 90,59 C90,60.6572 88.8097855,62 87.340897,62 Z" id="Shape" fill="#FFF9DF"></path>
                </g>
            </g>
        </g>
    </g>
</svg>

<svg xmlns="http://www.w3.org/2000/svg" viewBox="0 0 660 545"><defs><filter id="a" width="149.5%" height="161.1%" x="-24.8%" y="-20.8%" filterUnits="objectBoundingBox"><feOffset dy="40" in="SourceAlpha" result="shadowOffsetOuter1"/><feGaussianBlur in="shadowOffsetOuter1" result="shadowBlurOuter1" stdDeviation="35"/><feColorMatrix in="shadowBlurOuter1" result="shadowMatrixOuter1" values="0 0 0 0 0.184313725 0 0 0 0 0.274509804 0 0 0 0 0.541176471 0 0 0 0.4 0"/><feMerge><feMergeNode in="shadowMatrixOuter1"/><feMergeNode in="SourceGraphic"/></feMerge></filter><filter id="b" width="220%" height="247.9%" x="-60%" y="-95.1%" filterUnits="objectBoundingBox"><feOffset dy="-30" in="SourceAlpha" result="shadowOffsetOuter1"/><feGaussianBlur in="shadowOffsetOuter1" result="shadowBlurOuter1" stdDeviation="30"/><feColorMatrix in="shadowBlurOuter1" result="shadowMatrixOuter1" values="0 0 0 0 0.196078431 0 0 0 0 0.294117647 0 0 0 0 0.57254902 0 0 0 0.3 0"/><feMerge><feMergeNode in="shadowMatrixOuter1"/><feMergeNode in="SourceGraphic"/></feMerge></filter></defs><g fill="none" fill-rule="nonzero" stroke="none" stroke-width="1"><g filter="url(#a)" transform="translate(-699 -141) translate(762 169)"><path fill="#5A5A5A" d="M145.77 5.325v22.633l-22.21 5.207-23.01-5.207V5.325a4.957 4.957 0 0 1 4.957-4.957h35.307a4.956 4.956 0 0 1 4.956 4.957z"/><path fill="#444" d="M145.77 5.328v22.63l-11.105 5.207-6.145-5.207V5.328a4.96 4.96 0 0 0-4.96-4.96h17.25a4.96 4.96 0 0 1 4.96 4.96z"/><path fill="#5A5A5A" d="M453.77 5.325v22.633l-23.12 4.207-22.1-4.207V5.325a4.957 4.957 0 0 1 4.957-4.957h35.307a4.956 4.956 0 0 1 4.956 4.957z"/><path fill="#444" d="M453.77 5.328v22.63l-11.205 2.039-6.245-2.039V5.328a4.96 4.96 0 0 0-4.96-4.96h17.45a4.96 4.96 0 0 1 4.96 4.96z"/><path fill="#DDEAFB" d="M504.5 49.963v248.04c0 12.153-9.852 22.005-22.005 22.005H459.01l-40.295-6.51-40.295 6.51H75.53c-14.2 0-25.71-11.52-25.71-25.71V53.668c0-14.19 11.51-25.71 25.71-25.71h406.965c12.153 0 22.005 9.852 22.005 22.005z"/><path fill="#CBE2FF" d="M504.5 49.958v248.05c0 12.15-9.85 22-22.01 22h-21.28c12.15 0 22.01-9.85 22.01-22V49.958c0-12.15-9.86-22-22.01-22h21.28c12.16 0 22.01 9.85 22.01 22z"/><path fill="#528FD8" d="M459.01 292.146v27.862h-80.59v-27.862a8.028 8.028 0 0 1 8.028-8.028h64.533a8.028 8.028 0 0 1 8.029 8.028z"/><path fill="#0473CE" d="M459.01 292.148v27.86h-20.33v-27.86c0-4.44-3.6-8.03-8.03-8.03h20.33c4.44 0 8.03 3.59 8.03 8.03z"/><path fill="#FFCEBF" d="m358.76 217.138-21.952-7.511-10.918-25.359 14.311-14.319 12.5-8.919c1.725-3.962 6.059 56.108 6.059 56.108z"/><path fill="#FFB09E" d="m363.01 161.148-4.25 55.99-13.736-4.7-1.894-10.93 2.143-28.255c.206-2.717-2.669-4.59-5.071-3.304l13.209-13.211c3.689-3.69 9.989-.8 9.599 4.41z"/><path fill="#82AEE3" d="m358.75 217.128-48.2 58.72a65.6 65.6 0 0 1-33.43 21.66l-77.122 21.09a7.006 7.006 0 0 0-5.158 6.758v75.273H37.31v-47.32c0-13.27 1.51-26.45 4.49-39.29 2.97-12.84 7.4-25.35 13.24-37.27a44.016 44.016 0 0 1 39.52-24.65h126.38c31.87 0 62.02-14.44 81.98-39.27l22.97-28.56 17.24 17.24 15.62 15.619z"/><path fill="#528FD8" d="m358.75 217.128-48.2 58.72a65.6 65.6 0 0 1-33.43 21.66l-77.122 21.09a7.006 7.006 0 0 0-5.158 6.758v75.273h-25.3v-75.273a7.006 7.006 0 0 1 5.158-6.758l77.122-21.09a65.6 65.6 0 0 0 33.43-21.66l57.88-74.34 15.62 15.62z"/><path fill="#FFCEBF" d="M172.727 172.774v38.119c0 22.763-18.458 41.21-41.221 41.21-.861 0-1.722-.022-2.572-.088-21.571-1.325-38.638-19.22-38.638-41.122v-38.119h82.431z"/><path fill="#528FD8" d="M292.949 99.914h-31.581a4.632 4.632 0 0 1-4.632-4.632V76.948a4.632 4.632 0 0 1 4.632-4.632h31.581a4.632 4.632 0 0 1 4.632 4.632v18.334a4.631 4.631 0 0 1-4.632 4.632zM292.949 155.889h-31.581a4.632 4.632 0 0 1-4.632-4.632v-18.334a4.632 4.632 0 0 1 4.632-4.632h31.581a4.632 4.632 0 0 1 4.632 4.632v18.334a4.631 4.631 0 0 1-4.632 4.632z"/><path fill="#FFCEBF" d="M172.73 172.778v38.11c0 22.77-18.46 41.21-41.22 41.21-.87 0-1.73-.02-2.58-.08-2.9-.18-5.72-.65-8.42-1.41-17.43-4.8-30.21-20.75-30.21-39.72v-38.11h82.43z"/><path fill="#FFB09E" d="M172.73 172.778v38.11c0 22.77-18.46 41.21-41.22 41.21-.87 0-1.73-.02-2.58-.08-2.9-.18-5.72-.65-8.42-1.41 17.42-4.81 30.22-20.76 30.22-39.72v-38.11h22z"/><path fill="#5A5A5A" d="M207.31 146.398c0 16.32-13.22 29.54-29.54 29.54h-53.28v40.88c0 18.78-20.15 24.83-32.13 17.22-4.83-3.07-8.33-8.35-8.65-15.9-.03-.63-.04-1.28-.04-1.92v-56.21c0-13.11 10.61-23.73 23.72-23.73H128c14.678 0 20.162-11.595 32.21-16.9 5.467-2.38 11.654-2.801 17.56-2.53 16.32 0 29.54 13.23 29.54 29.55z"/><g fill="#444"><path d="M.38 29.808c.45-.61.93-1.2 1.45-1.76-.51.56-.99 1.15-1.45 1.76zM29.36 59.938h7.13v40.88c0 18.78-20.15 24.83-32.13 17.22 5.31-3.28 9.13-9.04 9.13-17.22v-25.01c0-8.77 7.1-15.87 15.87-15.87zM119.31 30.398c0 16.32-13.22 29.54-29.54 29.54H66.1c16.24 0 30.2-13.28 30.21-29.52.01-13.28-8.74-24.52-20.79-28.25C79.706.877 85.2.653 89.77.848c16.32 0 29.54 13.23 29.54 29.55z" transform="translate(88 116)"/></g><path fill="#0067C5" d="M222.768 393.132H7.5a7.5 7.5 0 0 0 0 15h215.268a7.5 7.5 0 0 0 0-15z"/><path fill="#FFF9DF" d="M459.011 93.614H325.886a7.5 7.5 0 0 1 0-15h133.125a7.5 7.5 0 0 1 0 15zM358.751 149.59h-32.865a7.5 7.5 0 0 1 0-15h32.865a7.5 7.5 0 0 1 0 15z"/></g><g filter="url(#b)" transform="translate(-699 -141) translate(762 169) translate(363 267)"><path fill="#5A5A5A" d="M44 9.503 34 11 24 9.503V2.46C24 1.1 25.164 0 26.599 0H41.4C42.836 0 44 1.101 44 2.46v7.043z"/><path fill="#444" d="M44 2.458v7.045L41.305 11l-1.91-1.497V2.458C39.395 1.1 38.324 0 37 0h4.605C42.93 0 44 1.1 44 2.458z"/><path fill="#5A5A5A" d="M149 9.503 139 11l-10-1.497V2.46C129 1.1 130.164 0 131.599 0H146.4C147.837 0 149 1.101 149 2.46v7.043z"/><path fill="#444" d="M150 2.458v7.045L147.272 11l-2.741-1.497V2.458C144.53 1.1 143.399 0 142 0h5.47c1.395 0 2.53 1.1 2.53 2.458z"/><path fill="#DDEAFB" d="M175 18.273v89.457c0 4.017-3.077 7.27-6.87 7.27H6.87C3.077 115 0 111.747 0 107.73V18.273C0 14.256 3.077 11 6.87 11h161.26c3.793 0 6.87 3.256 6.87 7.273z"/><path fill="#CBE2FF" d="M175 18.273v89.457c0 4.017-2.976 7.27-6.64 7.27H159c3.667 0 6.64-3.253 6.64-7.27V18.273c0-4.017-2.973-7.273-6.64-7.273h9.36c3.664 0 6.64 3.256 6.64 7.273z"/><path fill="#528FD8" d="M54 47c0 5.467-2.237 10.418-5.86 14L34 47h20z"/><path fill="#82AEE3" d="M54 47H34V27c11.044 0 20 8.956 20 20z"/><path fill="#0473CE" d="M48 60.287C44.396 63.815 39.417 66 33.918 66 22.915 66 14 57.268 14 46.5S22.915 27 33.918 27v19.5L48 60.287z"/><path fill="#FFF9DF" d="M57 79.637v16.726C57 97.823 55.804 99 54.33 99H13.67C12.196 99 11 97.822 11 96.363V79.637C11 78.18 12.196 77 13.67 77h40.66c1.474 0 2.67 1.181 2.67 2.637z"/><path fill="#FFF0AD" d="M57 79.637v16.726C57 97.823 55.79 99 54.3 99H42c1.49 0 2.7-1.178 2.7-2.637V79.637C44.7 78.18 43.49 77 42 77h12.3c1.49 0 2.7 1.181 2.7 2.637z"/><path fill="#528FD8" d="M139 26.534v8.932c0 1.399-1.171 2.534-2.623 2.534H68.623C67.175 38 66 36.865 66 35.466v-8.932C66 25.135 67.175 24 68.623 24h67.754c1.452 0 2.623 1.135 2.623 2.534z"/><path fill="#0473CE" d="M139 26.534v8.932c0 1.399-1.158 2.534-2.593 2.534H125c1.435 0 2.593-1.135 2.593-2.534v-8.932c0-1.399-1.158-2.534-2.593-2.534h11.407c1.435 0 2.593 1.135 2.593 2.534z"/><path fill="#528FD8" d="M175 81.949v47.102c0 7.15-5.72 12.949-12.771 12.949H115.77C108.72 142 103 136.201 103 129.051V81.95C103 74.799 108.72 69 115.771 69h46.458C169.28 69 175 74.799 175 81.949z"/><path fill="#0473CE" d="M175 81.949v47.102c0 7.15-5.868 12.949-13.105 12.949H152c7.236 0 13.105-5.799 13.105-12.949V81.95C165.105 74.799 159.236 69 152 69h9.895C169.132 69 175 74.799 175 81.949z"/><path fill="#FFD15B" d="M122.274 127h-6.548c-.953 0-1.726-.742-1.726-1.658v-20.684c0-.916.773-1.658 1.726-1.658h6.548c.953 0 1.726.742 1.726 1.658v20.684c0 .916-.773 1.658-1.726 1.658z"/><path fill="#FFF0AD" d="M142.274 126h-6.548c-.953 0-1.726-.72-1.726-1.61V97.61c0-.89.773-1.61 1.726-1.61h6.548c.953 0 1.726.72 1.726 1.61v26.78c0 .89-.773 1.61-1.726 1.61z"/><path fill="#FFF9DF" d="M162.274 126h-6.548c-.953 0-1.726-.717-1.726-1.602V88.602c0-.885.773-1.602 1.726-1.602h6.548c.953 0 1.726.717 1.726 1.602v35.796c0 .885-.773 1.602-1.726 1.602z"/><path fill="#FFF0AD" d="M94 79.637v16.726C94 97.823 92.801 99 91.317 99H68.683C67.203 99 66 97.822 66 96.363V79.637C66 78.18 67.202 77 68.683 77h22.634C92.8 77 94 78.181 94 79.637z"/><path fill="#FFD15B" d="M94 79.637v16.726C94 97.823 92.76 99 91.224 99H80c1.536 0 2.776-1.178 2.776-2.637V79.637C82.776 78.18 81.536 77 80 77h11.224C92.76 77 94 78.181 94 79.637z"/><path fill="#FFF9DF" d="M153.354 52H68.645C67.184 52 66 50.657 66 49s1.184-3 2.645-3h84.71c1.461 0 2.645 1.343 2.645 3s-1.184 3-2.646 3zM154.317 62h-53.634C99.2 62 98 60.657 98 59s1.2-3 2.683-3h53.634C155.8 56 157 57.343 157 59s-1.2 3-2.683 3zM87.34 62H68.66C67.19 62 66 60.657 66 59s1.19-3 2.66-3h18.68c1.47 0 2.66 1.343 2.66 3s-1.19 3-2.66 3z"/></g></g></svg>
